outputs/icons/image/straighten_sharp.svg

<svg xmlns="http://www.w3.org/2000/svg" width="1200" height="1200" fill="none"><g clip-path="url(#a)"><path fill="#000" d="M1150 300H50v600h1100zm-100 500H150V400h100v200h100V400h100v200h100V400h100v200h100V400h100v200h100V400h100z"/></g><defs><clipPath id="a"><path fill="#fff" d="M0 0h1200v1200H0z"/></clipPath></defs></svg>

<svg width="1200" height="1200" viewBox="0 0 1200 1200" fill="none" xmlns="http://www.w3.org/2000/svg"><g clip-path="url(#clip0_124_534)"><path d="M1150 300H50V900H1150V300ZM1050 800H150V400H250V600H350V400H450V600H550V400H650V600H750V400H850V600H950V400H1050V800Z" fill="#1D1E23"/></g><defs><clipPath id="clip0_124_534"><path width="24" fill="white" d="M0 0H1200V1200H0V0z"/></clipPath></defs></svg>
